X: 6
T: Make a Bustle
%R: reel
B: "Twenty Four Country Dances for the Year 1781", Thomas Skillern, ed. p.3 #2
F: http://www.vwml.org/browse/browse-collections-dance-tune-books/browse-skillerns1781#
Z: 2014 John Chambers <jc:trillian.mit.edu>
M: C|
L: 1/16
K: F
|:\
FAcA FBdB Afed {d}c2BA | dBAG cAGF fcBA A2G2 :: c=Bce dcdf edeg fefa |
gedc afed gcd=B c2de | fcAF dBdf BGAF FEDC | A,CFA DFBd cABG F4 :|
%%begintext align
%%   First four Couple Le chain :|
%% First four Couple Chassee and
%% back again :|. Cross over figure
%% thro' the bottom and Right &
%% Left with the top :|:
%%endtext

%%sep 1 1 500
%%sep 1 1 500
